svg/tag_remove_outline.svg

<svg xmlns="http://www.w3.org/2000/svg" viewBox="0 0 24 24"><path d="M6.5 5A1.5 1.5 0 1 0 8 6.5 1.5 1.5 0 0 0 6.5 5m0 0A1.5 1.5 0 1 0 8 6.5 1.5 1.5 0 0 0 6.5 5m14.91 6.58-9-9A2 2 0 0 0 11 2H4a2 2 0 0 0-2 2v7a2 2 0 0 0 .59 1.42l.41.4a5.6 5.6 0 0 1 2.08-.74L4 11V4h7l9 9-7 7-1.08-1.08a5.6 5.6 0 0 1-.74 2.08l.41.41A2 2 0 0 0 13 22a2 2 0 0 0 1.41-.59l7-7A2 2 0 0 0 22 13a2 2 0 0 0-.59-1.42M6.5 5A1.5 1.5 0 1 0 8 6.5 1.5 1.5 0 0 0 6.5 5m1.62 16.54L6 19.41l-2.12 2.13-1.42-1.42L4.59 18l-2.13-2.12 1.42-1.42L6 16.59l2.12-2.13 1.42 1.42L7.41 18l2.13 2.12Z"/></svg>

<?xml version="1.0" encoding="UTF-8"?><!DOCTYPE svg PUBLIC "-//W3C//DTD SVG 1.1//EN" "http://www.w3.org/Graphics/SVG/1.1/DTD/svg11.dtd"><svg xmlns="http://www.w3.org/2000/svg" xmlns:xlink="http://www.w3.org/1999/xlink" version="1.1" id="mdi-tag-remove-outline" width="24" height="24" viewBox="0 0 24 24"><path d="M6.5 5A1.5 1.5 0 1 0 8 6.5A1.5 1.5 0 0 0 6.5 5M6.5 5A1.5 1.5 0 1 0 8 6.5A1.5 1.5 0 0 0 6.5 5M21.41 11.58L12.41 2.58A2 2 0 0 0 11 2H4A2 2 0 0 0 2 4V11A2 2 0 0 0 2.59 12.42L3 12.82A5.62 5.62 0 0 1 5.08 12.08L4 11V4H11L20 13L13 20L11.92 18.92A5.57 5.57 0 0 1 11.18 21L11.59 21.41A2 2 0 0 0 13 22A2 2 0 0 0 14.41 21.41L21.41 14.41A2 2 0 0 0 22 13A2 2 0 0 0 21.41 11.58M6.5 5A1.5 1.5 0 1 0 8 6.5A1.5 1.5 0 0 0 6.5 5M8.12 21.54L6 19.41L3.88 21.54L2.46 20.12L4.59 18L2.46 15.88L3.88 14.46L6 16.59L8.12 14.46L9.54 15.88L7.41 18L9.54 20.12Z" /></svg>
